gama.ui.shared/icons_svg/dark/overlays/small.selectable.svg

<svg height="16" viewBox="-186.274 -3115.658 16 16" width="16" xmlns="http://www.w3.org/2000/svg"><g fill="none"><path d="m-182.55981-3105.9436h-1.71429v4.2856h4.28571v-1.7142h-2.57142zm-1.71429-3.4286h1.71429v-2.5714h2.57142v-1.7144h-4.28571zm10.28571 6h-2.57142v1.7142h4.28571v-4.2856h-1.71429zm-2.57142-10.2858v1.7144h2.57142v2.5714h1.71429v-4.2858z" fill="#999"/><path d="m-182.55981-3105.9436h-1.71429v4.2856h4.28571v-1.7142h-2.57142zm-1.71429-3.4286h1.71429v-2.5714h2.57142v-1.7144h-4.28571zm10.28571 6h-2.57142v1.7142h4.28571v-4.2856h-1.71429zm-2.57142-10.2858v1.7144h2.57142v2.5714h1.71429v-4.2858z" stroke="#fff" stroke-linecap="round" stroke-linejoin="round" stroke-width=".5"/></g></svg>

<?xml version="1.0" encoding="UTF-8" standalone="no"?>
<!DOCTYPE svg PUBLIC "-//W3C//DTD SVG 1.1//EN" "http://www.w3.org/Graphics/SVG/1.1/DTD/svg11.dtd">
<svg xmlns="http://www.w3.org/2000/svg" xmlns:xl="http://www.w3.org/1999/xlink" version="1.1" xmlns:dc="http://purl.org/dc/elements/1.1/" viewBox="-186.2741 -3115.658 16.000008 16.000008" width="16.000008" height="16.000008">
  <defs/>
  <g id="SOURCES" stroke-opacity="1" fill="none" stroke="none" fill-opacity="1" stroke-dasharray="none">
    <title>SOURCES</title>
    <g id="SOURCES_Dark">
      <title>Dark</title>
      <g id="Graphic_11202"/>
      <g id="Graphic_11203">
        <path d="M -182.55981 -3105.9436 L -184.2741 -3105.9436 L -184.2741 -3101.658 L -179.98839 -3101.658 L -179.98839 -3103.3722 L -182.55981 -3103.3722 L -182.55981 -3105.9436 Z M -184.2741 -3109.3722 L -182.55981 -3109.3722 L -182.55981 -3111.9436 L -179.98839 -3111.9436 L -179.98839 -3113.658 L -184.2741 -3113.658 L -184.2741 -3109.3722 Z M -173.98839 -3103.3722 L -176.55981 -3103.3722 L -176.55981 -3101.658 L -172.2741 -3101.658 L -172.2741 -3105.9436 L -173.98839 -3105.9436 L -173.98839 -3103.3722 Z M -176.55981 -3113.658 L -176.55981 -3111.9436 L -173.98839 -3111.9436 L -173.98839 -3109.3722 L -172.2741 -3109.3722 L -172.2741 -3113.658 L -176.55981 -3113.658 Z" fill="#999"/>
        <path d="M -182.55981 -3105.9436 L -184.2741 -3105.9436 L -184.2741 -3101.658 L -179.98839 -3101.658 L -179.98839 -3103.3722 L -182.55981 -3103.3722 L -182.55981 -3105.9436 Z M -184.2741 -3109.3722 L -182.55981 -3109.3722 L -182.55981 -3111.9436 L -179.98839 -3111.9436 L -179.98839 -3113.658 L -184.2741 -3113.658 L -184.2741 -3109.3722 Z M -173.98839 -3103.3722 L -176.55981 -3103.3722 L -176.55981 -3101.658 L -172.2741 -3101.658 L -172.2741 -3105.9436 L -173.98839 -3105.9436 L -173.98839 -3103.3722 Z M -176.55981 -3113.658 L -176.55981 -3111.9436 L -173.98839 -3111.9436 L -173.98839 -3109.3722 L -172.2741 -3109.3722 L -172.2741 -3113.658 L -176.55981 -3113.658 Z" stroke="white" stroke-linecap="round" stroke-linejoin="round" stroke-width=".5"/>
      </g>
    </g>
  </g>
</svg>
